gama.ui.shared/icons_svg/dark/views/open.view.svg

<svg height="25" viewBox="-490.483 -3025.285 25 25" width="25" xmlns="http://www.w3.org/2000/svg"><g fill="none"><path d="m-469.82276-3024.7847h-16.32c-2.12077 0-3.84 1.7192-3.84 3.84v16.32c0 2.1207 1.71923 3.84 3.84 3.84h16.32c2.12076 0 3.84-1.7193 3.84-3.84v-16.32c0-2.1208-1.71924-3.84-3.84-3.84z" fill="#666"/><path d="m-469.82276-3024.7847h-16.32c-2.12077 0-3.84 1.7192-3.84 3.84v16.32c0 2.1207 1.71923 3.84 3.84 3.84h16.32c2.12076 0 3.84-1.7193 3.84-3.84v-16.32c0-2.1208-1.71924-3.84-3.84-3.84z" stroke="#fff" stroke-linecap="round" stroke-linejoin="round" stroke-width=".25"/><g fill="#c0e0ff"><path d="m-468.4205-3007.5335c0 1.114-.90414 2.0181-2.01815 2.0181h-10.50245c-1.114 0-2.01815-.9041-2.01815-2.0181v-10.5025c0-1.114.90415-2.018 2.01815-2.018h10.50245c1.11401 0 2.01815.904 2.01815 2.018zm-.80727-9.2915v-1.211c0-.67-.54086-1.211-1.21088-1.211h-10.50245c-.67 0-1.2109.541-1.2109 1.211v1.211zm0 .8072h-12.92423v8.4843c0 .67.5409 1.2109 1.2109 1.2109h10.50245c.67002 0 1.21088-.5409 1.21088-1.2109zm-12.11693-2.4218h.80723v.8073h-.80723zm1.6145 0h.80725v.8073h-.80725zm1.6145 0h.80727v.8073h-.80727z"/><path d="m-484.9622-3012.7847-2.47156-2.8805c-.16354-.1908-.14539-.4818.04543-.6452.19083-.1636.4816-.1454.64513.0454l2.72604 3.1804c.14536.1726.14536.418 0 .5906l-2.72604 3.1895c-.16353.1908-.4543.209-.64513.0455-.19082-.1637-.20897-.4544-.04543-.6453z"/></g></g></svg>

<?xml version="1.0" encoding="UTF-8" standalone="no"?>
<!DOCTYPE svg PUBLIC "-//W3C//DTD SVG 1.1//EN" "http://www.w3.org/Graphics/SVG/1.1/DTD/svg11.dtd">
<svg xmlns="http://www.w3.org/2000/svg" xmlns:xl="http://www.w3.org/1999/xlink" version="1.1" xmlns:dc="http://purl.org/dc/elements/1.1/" viewBox="-490.48276 -3025.2847 25 25" width="25" height="25">
  <defs/>
  <g id="SOURCES" stroke-opacity="1" fill="none" stroke="none" fill-opacity="1" stroke-dasharray="none">
    <title>SOURCES</title>
    <g id="SOURCES_Dark">
      <title>Dark</title>
      <g id="Graphic_11063">
        <path d="M -469.82276 -3024.7847 L -486.14276 -3024.7847 C -488.26353 -3024.7847 -489.98276 -3023.0655 -489.98276 -3020.9447 L -489.98276 -3004.6247 C -489.98276 -3002.504 -488.26353 -3000.7847 -486.14276 -3000.7847 L -469.82276 -3000.7847 C -467.702 -3000.7847 -465.98276 -3002.504 -465.98276 -3004.6247 L -465.98276 -3020.9447 C -465.98276 -3023.0655 -467.702 -3024.7847 -469.82276 -3024.7847 Z" fill="#666"/>
        <path d="M -469.82276 -3024.7847 L -486.14276 -3024.7847 C -488.26353 -3024.7847 -489.98276 -3023.0655 -489.98276 -3020.9447 L -489.98276 -3004.6247 C -489.98276 -3002.504 -488.26353 -3000.7847 -486.14276 -3000.7847 L -469.82276 -3000.7847 C -467.702 -3000.7847 -465.98276 -3002.504 -465.98276 -3004.6247 L -465.98276 -3020.9447 C -465.98276 -3023.0655 -467.702 -3024.7847 -469.82276 -3024.7847 Z" stroke="white" stroke-linecap="round" stroke-linejoin="round" stroke-width=".25"/>
      </g>
      <g id="Graphic_11062">
        <path d="M -468.4205 -3007.5335 C -468.4205 -3006.4195 -469.32464 -3005.5154 -470.43865 -3005.5154 L -480.9411 -3005.5154 C -482.0551 -3005.5154 -482.95925 -3006.4195 -482.95925 -3007.5335 L -482.95925 -3018.036 C -482.95925 -3019.15 -482.0551 -3020.054 -480.9411 -3020.054 L -470.43865 -3020.054 C -469.32464 -3020.054 -468.4205 -3019.15 -468.4205 -3018.036 L -468.4205 -3007.5335 Z M -469.22777 -3016.825 L -469.22777 -3018.036 C -469.22777 -3018.706 -469.76863 -3019.247 -470.43865 -3019.247 L -480.9411 -3019.247 C -481.6111 -3019.247 -482.152 -3018.706 -482.152 -3018.036 L -482.152 -3016.825 Z M -469.22777 -3016.0178 L -482.152 -3016.0178 L -482.152 -3007.5335 C -482.152 -3006.8635 -481.6111 -3006.3226 -480.9411 -3006.3226 L -470.43865 -3006.3226 C -469.76863 -3006.3226 -469.22777 -3006.8635 -469.22777 -3007.5335 Z M -481.3447 -3018.4396 L -480.53747 -3018.4396 L -480.53747 -3017.6323 L -481.3447 -3017.6323 Z M -479.7302 -3018.4396 L -478.92295 -3018.4396 L -478.92295 -3017.6323 L -479.7302 -3017.6323 Z M -478.1157 -3018.4396 L -477.30843 -3018.4396 L -477.30843 -3017.6323 L -478.1157 -3017.6323 Z" fill="#c0e0ff"/>
      </g>
      <g id="Graphic_11060">
        <path d="M -484.9622 -3012.7847 L -487.43376 -3015.6652 C -487.5973 -3015.856 -487.57915 -3016.147 -487.38833 -3016.3104 C -487.1975 -3016.474 -486.90673 -3016.4558 -486.7432 -3016.265 L -484.01716 -3013.0846 C -483.8718 -3012.912 -483.8718 -3012.6666 -484.01716 -3012.494 L -486.7432 -3009.3045 C -486.90673 -3009.1137 -487.1975 -3009.0955 -487.38833 -3009.259 C -487.57915 -3009.4227 -487.5973 -3009.7134 -487.43376 -3009.9043 L -484.9622 -3012.7847 Z" fill="#c0e0ff"/>
      </g>
    </g>
  </g>
</svg>
